X:20
T: Billy Caples' Reel
S: Mike Reynolds
Z: B.Black
R: reel
M: 4/4
L: 1/8
K: G
e | dG (3GFG cBce | dGGA GEDE | GFGA BABc |\
dega bage |
dG (3GFG cBce | dGGA GEDE | GFGA dcde |\
dggf g3 :|
e | (3gfg bg efge | dBGB AGED | (3gfg bg egdg |\
eaab agef |
(3ede ge cdec | dBGB AGED | GFGA BABc |\
dggf g3 :|
